!!!OTL: WER DIE GANS GESTOHLEN HAT
!!!ARE: Europa, Mitteleuropa, Deutschland
!!!SCT: E1896
!!!YEM: Copyright 1995, estate of Helmut Schaffrath.
**kern
*ICvox
*Ivox
*M2/4
*k[b-]
*F:
=1
{8f
8g
8a
8b-
=2
8cc
8cc
8cc}
{8cc
=3
4dd
4ff
=4
4cc
8r}
{8cc
=5
4dd
4ff
=6
4cc
8r}
{8cc
=7
8cc
8b-
8b-
8b-
=8
8b-
8a
8a}
{8a
=9
4g
4cc
=10
4f
8r}
{8a
=11
4g
4cc
=12
4f
4r}
==
!!!AGN: Kinder - Lied, Tanz, Spiel
!!!ONB: ESAC (Essen Associative Code) Database: ERK3
!!!AMT: simple duple
!!!AIN: vox
!!!EED: Helmut Schaffrath
!!!EEV: 1.0
*-
